X:2007
T:Black Velvet Band, The
R:Waltz
C:Trad.
O:Ireland
M:3/4
L:1/4
Q:1/4=150
K:G
d|"G"d2d|B>cd|cB2|B2A|(GAB)|GF>E|"D"(D3|D)dc|
"G"B>BB|DEF|"Em"G2A|B2G|"Am"ABc|"D"FG>A|"G"G3|G2z|]

